!!!!SEGMENT: pl-kk--kk-i-265--002_anonim--alleluia-ave-maria.krn
!!!cenid: 17xx:2050
!!!COM: Anonim
!!!COM-rismID: pe30004985
!!!CDT:
!!!CNT:
!!!OTL: Alleluia Ave Maria
!!!PDT:
!!!AGN: Sacred
!!!SMS-siglum: PL-Kk
!!!SMS-shelfmark: Kk.I.265
!!!SMS-shelfwork: 002 W
!!!SMS-variant:
!!!SMS-altvar:
!!!NIFC-rismSourceID: 1001143724
!!!NIFC-rismChildID: 1001143726
!!!NIFC-islandoraID: pl-kk:4753
!!!URL-pdf-islandora: https://repozytorium.nifc.pl/islandora/object/pl-kk%3A4753/datastream/PDF/view
!!!URL-scan: https://polish.musicsources.pl/pl/lokalizacje/galeria/rekopisy/5885 @EN{Scan on Polish Music Sources Website} @PL{Skany w portalu Dziedzictwo Muzyki Polskiej w otwartym dostępie}
!!!IIIF:
!!!ONB-nifc: UWAGA: utwory w zbiorze: 1. Rorate caeli (Alto, Basso), 2. Alleluia Ave Maria (B), 3. Surrexit Dominus (B)
!!!AIN: 1 bass
!!!key:
**kern	**text
*Ibass	*
*I"	*
*clefF4	*
*k[b-]	*
*B-:	*
*M2/2	*
*met(c|)	*
=1	=1
!LO:TX:t=P:problem=przy kluczu B- BB-	!
!LO:TX:a:B:t=Lente.	!
4r	.
4G\	Al-
4B-\	-le-
4G\	-lu-
=2	=2
!LO:TX:t=P:global:problem=kreska pionowa na różnych liniach [rozdzielacz słów / znak oddechu]	!
4Fn,\	-ia
*	*ij
4F\	Al-
4F\	-le-
4F\	-lu-
=3	=3
2BB-,</	-ia
*	*Xij
4BB-/	al-
4C/	.
=4	=4
*2\right	*
2D\	.
4G\	-le-
4G\	-lu-
=5	=5
2F,<\	-ia
*	*ij
4F\	al-
4E-X\	.
=6	=6
2D\	.
4E-X\	-le-
!LO:TX:t=P:problem=brak kreski taktowej	!
4F\	-lu-
=7	=7
2BB-,</	-ia
*	*Xij
2C/	al-
=8	=8
2F\	-le-
2BB-/	-lu-
=9	=9
4C/	-ia
*	*ij
4C/	al-
4D/	-le-
!LO:TX:t=P:problem=brak kreski taktowej	!
4D/	-lu-
=10	=10
0GG/;	-ia
*	*Xij
!!LO:LB:g=original
=11||	=11||
*M3/2	*
2D\	A-
2D\	-ve
2D\	Ma-
=12	=12
1G\	-ri-
2G\	-a
=13	=13
2.F\	gra-
4F\	-ti-
2F\	-a
=14	=14
1BB-/	ple-
2BB-/	-na
=15	=15
2.BB-/	Do-
4C/	.
4D/	.
4E/	.
=16	=16
2.F\	.
4F\	-mi-
2G\	-n(us)
=17	=17
!LO:TX:t=P:problem=brak kreski taktowej	!
1.D\	Te-
=18-	=18-
1.GG/	-cum
=19	=19
2D\	be-
2Fn\	-ne-
2D\	-di-
!!LO:LB:g=original
=20	=20
1A\	-cta
2D\	Tu
=21	=21
2En\	in
2E\	mu-
2C/	-li-
=22	=22
2.F\	-e-
4F\	-ri-
2BB-,</	-bus
=23	=23
*	*ij
2C/	in
2C/	mu-
2GG/	-li-
=24	=24
2.D\	-e-
4D\	-ri-
2D\	-bus
*	*Xij
=25	=25
2G\	et
2G\	be-
2C/	-ne-
=26	=26
2F\	-di-
2F,<\	-ct(us)
2BB-/	Fru-
=27	=27
2C,</	-ct(us)
2C/	Ven-
2GG/	-tris
!!LO:LB:g=original
=28	=28
!LO:TX:t=P:problem=skreślone takty	!
1.D\	Tu-
=29	=29
1.GG/	-i
=30||	=30||
2D\	al-
2D\	-le-
2D\	-lu-
=31	=31
2G,<\	-ia
2G\	al-
*custos:F	*
2G\	-le-
!!LO:LB:g=original
=32	=32
2F\	-lu-
2F,<\	-ia
*	*ij
4F\	al-
4F\	-le-
=33	=33
1BB-/	-lu-
2BB-/	-ia
*	*Xij
=34	=34
2.BB-/	al-
4C/	.
4D/	.
4E/	.
=35	=35
1F\	.
2G\	.
=36	=36
1D\	-le-
2D\	-lu-
=37	=37
*M2/2	*
*met(c|)	*
2GG,</	-ia
2GG/	a-
=38	=38
1.D\	-le-
=39-	=39-
.	.
2D\	-lu-
=40-	=40-
00GG/;	-ia
==	==
*-	*-
!!!RDF**kern: > = above
!!!RDF**kern: < = below
!!!EED: Leszek Kubiak
!!!EEV: 2021-03-02
!!!ENC: Andrzej Kubiczek
!!!END: 2021-02-17
!!!YEC: Copyright 2022 Narodowy Instytut Fryderyka Chopina (https://polishscores.org)
!!!YEM: License CC-BY-4.0 (https://creativecommons.org/licenses/by/4.0)
